X: 1312
T: Kır Atıma Bineyim
C: Nasib´in Mehmet Yürü
O: Turkey
F: http://compmusic.upf.edu/node/140
N: acemkurdi--sarki--aksak--kir_atima--nasibin_mehmet_yuru
N: makam= acemkurdi
N: form= sarki
N: usul= aksak = 9/8
M: 9/8
L: 1/16
K: C _B   
Q: 1/4=240
%%MIDI tuningsystem comma53
f3e d2c2 d2e2 c6 | a3gf2 e2f2 g2a6  | \
w:  ARANAĞME  |   | 
g3f e4 f3e d6 | e3dc4d3cB6  | 
w:   |   | 
A2B2 _1/4B2c2 d4 _e2d2 c2 | _e2 d2c2 B2B2 A2A6  | \
w:   |   | 
f3e d2c2 d2e2 c6 | 
w:  ARANAĞME  | 
a3gf2 e2f2 g2a6  | g3f e4 f3e d6 | e3dc4d3cB6  | \
w:   |   |   | 
A2B2 _1/4B2c2 d4 _e2d2 c2 | 
w:   | 
_e2 d2c2 B2B2 A2A6  | {g}f3e d4 a4 a4 g2 | \
w:   |  *  Kır_ *  a tı ma   | 
g2 f2e2 d2c2 d2c6  | A4 B4 c2d2 _e2d2 c2 | 
w:  bi *  ne *  yim    |  Yâr  yo lu *  na   | 
{d}c2 B2B2 A2A8-A2  | {g}f3e d4 a4 a4 g2 | \
w:  *  gi *  de *  yim    |  *  Kır_ *  a tı ma   | 
g2 f2e2 d2c2 d2c6  | A4 B4 c2d2 _e2d2 c2 | 
w:  bi *  ne *  yim    |  Yâr  yo lu *  na   | 
{d}c2 B2B2 A2A8-A2  | g4 a4 {c'}b2a2 a4 g2 | \
w:  *  gi *  de *  yim    |  Be ni  *  aş *  ka   | 
a2 g2f2 e2f2 g2a6  | {g}f3e d2c2 d2e2 c4 A2 | 
w:  dü *  şü *  ren    |  *  Gül  *  yü *  zü *  nü   | 
c2 B2B2 A2A4a6  | g4 a4 {c'}b2a2 a4 g2 | \
w:  gö *  re *  yim   SAZ  |  Be ni  *  aş *  ka   | 
a2 g2f2 e2f2 g2a6  | {g}f3e d2c2 d2e2 c4 A2 | 
w:  dü *  şü *  ren    |  *  Gül  *  yü *  zü *  nü   | 
c2 B2B2 A2A4_1/4B2 c2z2  | _1/4B2c6 e2f2 d2_3/4e2 c2 | \
w:  gö *  re *  yim   SAZ  |  A man  a man   | 
_e3dc2 B2A2 _7/8B2c6  | 
w:  ben  *  yan *  dım    | 
A2B6 B2A2 {f}_e2d2 c2 | c2 B2B2 A2A8-A2  | \
w:  Ba na  yâr_ *  *  o  |  lur  *  san *  dım    | 
_1/4B2c6 e2f2 d2_3/4e2 c2 | _e3dc2 B2A2 _7/8B2c6  | 
w:  A man  a man   |  ben  *  yan *  dım    | 
A2B6 B2A2 {f}_e2d2 c2 | c2 B2B2 A2A8-A2  | \
w:  Ba na  yâr_ *  *  o  |  lur  *  san *  dım    | 
f3e d2c2 d2e2 c6 | a3gf2 e2f2 g2a6  | 
w:  ARANAĞME  |   | 
g3f e4 f3e d6 | e3dc4d3cB6  | A2B2 _1/4B2c2 d4 _e2d2 c2 | \
w:   |   |   | 
_e2 d2c2 B2B2 A2A6  | 
w:   | 
f3e d2c2 d2e2 c6 | a3gf2 e2f2 g2a6  | \
w:  ARANAĞME  |   | 
g3f e4 f3e d6 | e3dc4d3cB6  | 
w:   |   | 
A2B2 _1/4B2c2 d4 _e2d2 c2 | _e2 d2c2 B2B2 A2A6  | \
w:   |   | 
{g}f3e d4 a4 a4 g2 | 
w:  *  Kır_ *  a tı ma   | 
g2 f2e2 d2c2 d2c6  | A4 B4 c2d2 _e2d2 c2 | \
w:  bi *  ne *  yim    |  Yâr  yo lu *  na   | 
{d}c2 B2B2 A2A8-A2  | {g}f3e d4 a4 a4 g2 | 
w:  *  gi *  de *  yim    |  *  Kır_ *  a tı ma   | 
g2 f2e2 d2c2 d2c6  | A4 B4 c2d2 _e2d2 c2 | \
w:  bi *  ne *  yim    |  Yâr  yo lu *  na   | 
{d}c2 B2B2 A2A8-A2  | g4 a4 {c'}b2a2 a4 g2 | 
w:  *  gi *  de *  yim    |  Be ni  *  aş *  ka   | 
a2 g2f2 e2f2 g2a6  | {g}f3e d2c2 d2e2 c4 A2 | \
w:  dü *  şü *  ren    |  *  Gül  *  yü *  zü *  nü   | 
c2 B2B2 A2A4a6  | 
w:  gö *  re *  yim   SAZ  | 
g4 a4 {c'}b2a2 a4 g2 | a2 g2f2 e2f2 g2a6  | \
w:  Be ni  *  aş *  ka   |  dü *  şü *  ren    | 
{g}f3e d2c2 d2e2 c4 A2 | 
w:  *  Gül  *  yü *  zü *  nü   | 
c2 B2B2 A2A4_1/4B2 c2z2  | _1/4B2c6 e2f2 d2_3/4e2 c2 | \
w:  gö *  re *  yim   SAZ  |  A man  a man   | 
_e3dc2 B2A2 _7/8B2c6  | 
w:  ben  *  yan *  dım    | 
A2B6 B2A2 {f}_e2d2 c2 | c2 B2B2 A2A8-A2  | \
w:  Ba na  yâr_ *  *  o  |  lur  *  san *  dım    | 
_1/4B2c6 e2f2 d2_3/4e2 c2 | _e3dc2 B2A2 _7/8B2c6  | 
w:  A man  a man   |  ben  *  yan *  dım    | 
A2B6 B2A2 {f}_e2d2 c2 | c2 B2B2 A2A8-A2  | |


